packages/icons/src/eraser.svg

<svg width="15" height="15" viewBox="0 0 15 15" fill="none" xmlns="http://www.w3.org/2000/svg">
  <path
    fill-rule="evenodd"
    clip-rule="evenodd"
    d="M8.36052 0.72921C8.55578 0.533948 8.87236 0.533948 9.06763 0.72921L14.2708 5.93235C14.466 6.12761 14.466 6.4442 14.2708 6.63946L8.95513 11.9551L7.3466 13.5636C6.76081 14.1494 5.81106 14.1494 5.22528 13.5636L1.43635 9.7747C0.850563 9.18891 0.850563 8.23917 1.43635 7.65338L3.04488 6.04485L8.36052 0.72921ZM8.71407 1.78987L4.10554 6.3984L8.60157 10.8944L13.2101 6.28591L8.71407 1.78987ZM7.89447 11.6015L3.39843 7.10551L2.14346 8.36049C1.94819 8.55575 1.94819 8.87233 2.14346 9.06759L5.93238 12.8565C6.12765 13.0518 6.44423 13.0518 6.63949 12.8565L7.89447 11.6015Z"
    fill="currentColor"
  />
</svg>

<svg xmlns="http://www.w3.org/2000/svg" width="15" height="15" fill="none"><path fill="currentColor" fill-rule="evenodd" d="M8.36.73a.5.5 0 0 1 .708 0l5.203 5.202a.5.5 0 0 1 0 .707l-5.316 5.316-1.608 1.609a1.5 1.5 0 0 1-2.122 0l-3.789-3.79a1.5 1.5 0 0 1 0-2.12l1.609-1.61zm.354 1.06L4.106 6.398l4.496 4.496 4.608-4.608zm-.82 9.811L3.398 7.107 2.143 8.36a.5.5 0 0 0 0 .708l3.79 3.789a.5.5 0 0 0 .706 0z" clip-rule="evenodd"/></svg>
